Newaita-dark/apps/22/AppImageLauncher.svg

<svg height="22" viewBox="0 0 22 22" width="22" xmlns="http://www.w3.org/2000/svg" xmlns:xlink="http://www.w3.org/1999/xlink"><linearGradient id="a" gradientUnits="userSpaceOnUse" x1="10.9151136" x2="10.9151136" y1="19.27333715" y2="20.18293042919"><stop offset="0" stop-opacity=".27451"/><stop offset="1" stop-opacity="0"/></linearGradient><linearGradient id="b"><stop offset="0" stop-opacity=".313726"/><stop offset=".222222" stop-opacity=".27451"/><stop offset="1" stop-opacity="0"/></linearGradient><radialGradient id="c" cx="450.908936" cy="189.579361" gradientTransform="matrix(.00000012 -.0537161 -.0966889 -.00000007 35.839821 43.721791)" gradientUnits="userSpaceOnUse" r="21.166656" xlink:href="#b"/><radialGradient id="d" cx="450.908936" cy="189.579361" gradientTransform="matrix(-.00000012 .0537161 .0966889 .00000007 -14.009609 -5.175142)" gradientUnits="userSpaceOnUse" r="21.166656" xlink:href="#b"/><radialGradient id="e" cx="450.908936" cy="189.579361" gradientTransform="matrix(-.00000012 -.0537161 .0966889 -.00000007 -14.009609 43.721791)" gradientUnits="userSpaceOnUse" r="21.166656" xlink:href="#b"/><radialGradient id="f" cx="450.908936" cy="189.579361" gradientTransform="matrix(.00000012 .0537161 -.0966889 .00000007 35.839819 -5.175142)" gradientUnits="userSpaceOnUse" r="21.166656" xlink:href="#b"/><linearGradient id="g" gradientUnits="userSpaceOnUse" x1="7.27674417081" x2="7.27674417081" y1="19.27333515" y2="1.99106765838"><stop offset="0" stop-color="#2979ff"/><stop offset="1" stop-color="#448aff"/></linearGradient><linearGradient id="h" gradientUnits="userSpaceOnUse" x1="10.915104" x2="10.915104" y1="19.27332401286" y2="1.99107548985"><stop offset="0" stop-color="#e0e0e0"/><stop offset="1" stop-color="#eee"/></linearGradient><linearGradient id="i" gradientUnits="userSpaceOnUse" x1="10.9151166" x2="16.94117009787" y1="8.86986464063" y2="8.86986464063"><stop offset="0" stop-opacity=".117647"/><stop offset="1" stop-color="#fff" stop-opacity="0"/></linearGradient><path d="m4.09375 19.207031h13.644531v1.007813h-13.644531zm0 0" fill="url(#a)"/><path d="m17.738281 19.273438h1.816407v-.910157h-1.816407zm0 0" fill="url(#c)"/><path d="m4.09375 19.273438h-1.820312v.910156h1.820312zm0 0" fill="url(#d)"/><path d="m4.09375 19.273438h-1.820312v-.910157h1.820312zm0 0" fill="url(#e)"/><path d="m17.738281 19.273438h1.816407v.910156h-1.816407zm0 0" fill="url(#f)"/><path d="m3.183594 1.992188h15.464844c.5 0 .90625.40625.90625.910156v15.460937c0 .503907-.40625.910157-.90625.910157h-15.464844c-.503906 0-.910156-.40625-.910156-.910157v-15.460937c0-.503906.40625-.910156.910156-.910156zm0 0" fill="url(#g)"/><path d="m3.183594 2.035156c-.503906 0-.910156.40625-.910156.910156v.113282c0-.503906.40625-.910156.910156-.910156h15.464844c.503906 0 .90625.40625.90625.910156v-.113282c0-.503906-.402344-.910156-.90625-.910156zm0 0" fill="#fff" fill-opacity=".392157"/><path d="m3.183594 19.214844c-.503906 0-.910156-.402344-.910156-.90625v-.117188c0 .503906.40625.910156.910156.910156h15.464844c.503906 0 .90625-.40625.90625-.910156v.117188c0 .503906-.402344.90625-.90625.90625zm0 0" fill-opacity=".196078"/><path d="m74.083834-168.640791h359.874725c11.635253 0 21.088895 9.453643 21.088895 21.179796v359.783824c0 11.726153-9.453642 21.179796-21.088895 21.179796h-359.874725c-11.726152 0-21.179795-9.453643-21.179795-21.179796v-359.783824c0-11.726153 9.453643-21.179796 21.179795-21.179796zm0 0" fill="none" stroke="#212121" stroke-linecap="round" stroke-width="3" transform="matrix(.0429729 0 0 .0429729 0 9.239163)"/><path d="m10.914062 2.902344c-4.28125 0-7.730468 3.445312-7.730468 7.730468 0 4.28125 3.449218 7.730469 7.730468 7.730469 4.285157 0 7.734376-3.449219 7.734376-7.730469 0-4.285156-3.449219-7.730468-7.734376-7.730468zm0 .90625c3.78125 0 6.824219 3.042968 6.824219 6.824218 0 1.179688-.296875 2.289063-.820312 3.253907zm0 0-6 10.078125c-.523437-.964844-.820312-2.074219-.820312-3.253907 0-3.78125 3.042969-6.824218 6.820312-6.824218zm0 6.824218 5.992188 3.277344c-1.15625 2.113282-3.402344 3.542969-5.992188 3.542969-2.589843 0-4.832031-1.429687-5.988281-3.542969zm0 0" fill="url(#h)"/><path d="m10.914062 2.902344c-4.28125 0-7.730468 3.445312-7.730468 7.730468v.113282c.0625-4.230469 3.484375-7.617188 7.730468-7.617188 4.246094 0 7.671876 3.386719 7.730469 7.617188 0-.039063.003907-.074219.003907-.113282 0-4.285156-3.449219-7.730468-7.734376-7.730468zm0 1.136718 5.828126 9.78125.164062.089844c-.019531.03125-.035156.0625-.054688.09375l.066407.113282c.523437-.96875.820312-2.078126.820312-3.257813 0-.035156 0-.074219-.003906-.113281-.015625 1.140625-.3125 2.207031-.816406 3.140625l-5.867188-9.847657c-.042969 0-.089843 0-.136719 0zm0 0c-.042968 0-.089843 0-.136718 0l-5.863282 9.847657c-.507812-.933594-.800781-2-.820312-3.140625v.113281c0 1.179687.296875 2.289063.820312 3.257813l.066407-.113282c-.019531-.03125-.039063-.0625-.054688-.09375l.164063-.089844zm-5.890624 10.042969-.097657.054688c1.15625 2.117187 3.398438 3.542969 5.988281 3.542969 2.589844 0 4.835938-1.425782 5.992188-3.542969l-.101562-.054688c-1.179688 2.019531-3.371094 3.371094-5.890626 3.371094-2.515624 0-4.707031-1.351563-5.890624-3.371094zm0 0" fill="#fff"/><path d="m10.914062 3.832031.195313.320313c3.632813.101562 6.539063 3.019531 6.625 6.65625 0-.050782.003906-.105469.003906-.15625 0-3.78125-3.042969-6.820313-6.824219-6.820313zm0 0c-3.777343 0-6.820312 3.039063-6.820312 6.820313v.15625c.085938-3.636719 2.992188-6.554688 6.628906-6.65625zm0 6.820313-5.742187 3.140625-.164063.28125c.019532.03125.039063.066406.058594.097656l5.847656-3.199219 5.851563 3.199219c.019531-.03125.039063-.066406.058594-.097656l-.167969-.28125zm-7.730468.160156v.160156c0 4.285156 3.449218 7.730469 7.730468 7.730469 4.285157 0 7.734376-3.445313 7.734376-7.730469 0-.054687-.003907-.105468-.003907-.160156-.085937 4.207031-3.5 7.570312-7.730469 7.570312-4.230468 0-7.644531-3.363281-7.730468-7.570312zm0 0" fill-opacity=".235294"/><path d="m959.908384 255.265544c-376.542444 0-679.906475 303.02047-679.906475 679.906475 0 376.542444 303.364031 679.906475 679.906475 679.906475 376.886004 0 680.250036-303.364031 680.250036-679.906475 0-376.886005-303.364032-679.906475-680.250036-679.906475zm0 79.706065c332.566684 0 600.20041 267.633726 600.20041 600.20041 0 103.755308-26.110607 201.326526-72.147731 286.186zm0 0-527.709119 886.38641c-46.037123-84.859474-72.147731-182.430692-72.147731-286.186 0-332.566684 267.633726-600.20041 599.85685-600.20041zm0 600.20041 527.021997 288.247363c-101.693945 185.866298-299.241303 311.609487-527.021997 311.609487s-424.984492-125.743189-526.678437-311.609487zm0 0" fill="none" stroke="#212121" stroke-linecap="round" stroke-linejoin="round" stroke-width="11.338583" transform="scale(.0113699)"/><path d="m16.941406 13.929688-6.027344-3.296876v-6.824218zm0 0" fill="url(#i)"/></svg>

<?xml version="1.0" encoding="UTF-8"?>
<svg xmlns="http://www.w3.org/2000/svg" xmlns:xlink="http://www.w3.org/1999/xlink" width="22px" height="22px" viewBox="0 0 22 22" version="1.1">
<defs>
<linearGradient id="linear0" gradientUnits="userSpaceOnUse" x1="254" y1="233.5" x2="254" y2="254.666672" gradientTransform="matrix(0.0429729,0,0,0.0429729,-0.00000262285,9.239165)">
<stop offset="0" style="stop-color:rgb(0%,0%,0%);stop-opacity:0.27451;"/>
<stop offset="1" style="stop-color:rgb(0%,0%,0%);stop-opacity:0;"/>
</linearGradient>
<radialGradient id="radial0" gradientUnits="userSpaceOnUse" cx="450.908936" cy="189.579361" fx="450.908936" fy="189.579361" r="21.166656" gradientTransform="matrix(0.000000119742,-0.0537161,-0.0966889,-0.0000000698078,35.839821,43.721791)">
<stop offset="0" style="stop-color:rgb(0%,0%,0%);stop-opacity:0.313726;"/>
<stop offset="0.222222" style="stop-color:rgb(0%,0%,0%);stop-opacity:0.27451;"/>
<stop offset="1" style="stop-color:rgb(0%,0%,0%);stop-opacity:0;"/>
</radialGradient>
<radialGradient id="radial1" gradientUnits="userSpaceOnUse" cx="450.908936" cy="189.579361" fx="450.908936" fy="189.579361" r="21.166656" gradientTransform="matrix(-0.000000119742,0.0537161,0.0966889,0.0000000698078,-14.009609,-5.175142)">
<stop offset="0" style="stop-color:rgb(0%,0%,0%);stop-opacity:0.313726;"/>
<stop offset="0.222222" style="stop-color:rgb(0%,0%,0%);stop-opacity:0.27451;"/>
<stop offset="1" style="stop-color:rgb(0%,0%,0%);stop-opacity:0;"/>
</radialGradient>
<radialGradient id="radial2" gradientUnits="userSpaceOnUse" cx="450.908936" cy="189.579361" fx="450.908936" fy="189.579361" r="21.166656" gradientTransform="matrix(-0.000000119742,-0.0537161,0.0966889,-0.0000000698078,-14.009609,43.721791)">
<stop offset="0" style="stop-color:rgb(0%,0%,0%);stop-opacity:0.313726;"/>
<stop offset="0.222222" style="stop-color:rgb(0%,0%,0%);stop-opacity:0.27451;"/>
<stop offset="1" style="stop-color:rgb(0%,0%,0%);stop-opacity:0;"/>
</radialGradient>
<radialGradient id="radial3" gradientUnits="userSpaceOnUse" cx="450.908936" cy="189.579361" fx="450.908936" fy="189.579361" r="21.166656" gradientTransform="matrix(0.000000119742,0.0537161,-0.0966889,0.0000000698078,35.839819,-5.175142)">
<stop offset="0" style="stop-color:rgb(0%,0%,0%);stop-opacity:0.313726;"/>
<stop offset="0.222222" style="stop-color:rgb(0%,0%,0%);stop-opacity:0.27451;"/>
<stop offset="1" style="stop-color:rgb(0%,0%,0%);stop-opacity:0;"/>
</radialGradient>
<linearGradient id="linear1" gradientUnits="userSpaceOnUse" x1="169.333328" y1="233.5" x2="169.333328" y2="-168.666656" gradientTransform="matrix(0.0429729,0,0,0.0429729,0,9.239163)">
<stop offset="0" style="stop-color:rgb(16.078432%,47.450981%,100%);stop-opacity:1;"/>
<stop offset="1" style="stop-color:rgb(26.666668%,54.11765%,100%);stop-opacity:1;"/>
</linearGradient>
<linearGradient id="linear2" gradientUnits="userSpaceOnUse" x1="960" y1="1695.118164" x2="960" y2="175.118118" gradientTransform="matrix(0.0113699,0,0,0.0113699,0,0)">
<stop offset="0" style="stop-color:rgb(87.843138%,87.843138%,87.843138%);stop-opacity:1;"/>
<stop offset="1" style="stop-color:rgb(93.333334%,93.333334%,93.333334%);stop-opacity:1;"/>
</linearGradient>
<linearGradient id="linear3" gradientUnits="userSpaceOnUse" x1="254" y1="-8.59375" x2="394.229156" y2="-8.59375" gradientTransform="matrix(0.0429729,0,0,0.0429729,0,9.239163)">
<stop offset="0" style="stop-color:rgb(0%,0%,0%);stop-opacity:0.117647;"/>
<stop offset="1" style="stop-color:rgb(100%,100%,100%);stop-opacity:0;"/>
</linearGradient>
</defs>
<g id="surface1">
<path style=" stroke:none;fill-rule:nonzero;fill:url(#linear0);" d="M 4.09375 19.207031 L 17.738281 19.207031 L 17.738281 20.214844 L 4.09375 20.214844 Z M 4.09375 19.207031 "/>
<path style=" stroke:none;fill-rule:nonzero;fill:url(#radial0);" d="M 17.738281 19.273438 L 19.554688 19.273438 L 19.554688 18.363281 L 17.738281 18.363281 Z M 17.738281 19.273438 "/>
<path style=" stroke:none;fill-rule:nonzero;fill:url(#radial1);" d="M 4.09375 19.273438 L 2.273438 19.273438 L 2.273438 20.183594 L 4.09375 20.183594 Z M 4.09375 19.273438 "/>
<path style=" stroke:none;fill-rule:nonzero;fill:url(#radial2);" d="M 4.09375 19.273438 L 2.273438 19.273438 L 2.273438 18.363281 L 4.09375 18.363281 Z M 4.09375 19.273438 "/>
<path style=" stroke:none;fill-rule:nonzero;fill:url(#radial3);" d="M 17.738281 19.273438 L 19.554688 19.273438 L 19.554688 20.183594 L 17.738281 20.183594 Z M 17.738281 19.273438 "/>
<path style=" stroke:none;fill-rule:nonzero;fill:url(#linear1);" d="M 3.183594 1.992188 L 18.648438 1.992188 C 19.148438 1.992188 19.554688 2.398438 19.554688 2.902344 L 19.554688 18.363281 C 19.554688 18.867188 19.148438 19.273438 18.648438 19.273438 L 3.183594 19.273438 C 2.679688 19.273438 2.273438 18.867188 2.273438 18.363281 L 2.273438 2.902344 C 2.273438 2.398438 2.679688 1.992188 3.183594 1.992188 Z M 3.183594 1.992188 "/>
<path style=" stroke:none;fill-rule:nonzero;fill:rgb(100%,100%,100%);fill-opacity:0.392157;" d="M 3.183594 2.035156 C 2.679688 2.035156 2.273438 2.441406 2.273438 2.945312 L 2.273438 3.058594 C 2.273438 2.554688 2.679688 2.148438 3.183594 2.148438 L 18.648438 2.148438 C 19.152344 2.148438 19.554688 2.554688 19.554688 3.058594 L 19.554688 2.945312 C 19.554688 2.441406 19.152344 2.035156 18.648438 2.035156 Z M 3.183594 2.035156 "/>
<path style=" stroke:none;fill-rule:nonzero;fill:rgb(0%,0%,0%);fill-opacity:0.196078;" d="M 3.183594 19.214844 C 2.679688 19.214844 2.273438 18.8125 2.273438 18.308594 L 2.273438 18.191406 C 2.273438 18.695312 2.679688 19.101562 3.183594 19.101562 L 18.648438 19.101562 C 19.152344 19.101562 19.554688 18.695312 19.554688 18.191406 L 19.554688 18.308594 C 19.554688 18.8125 19.152344 19.214844 18.648438 19.214844 Z M 3.183594 19.214844 "/>
<path style="fill:none;stroke-width:3;stroke-linecap:round;stroke-linejoin:miter;stroke:rgb(12.941177%,12.941177%,12.941177%);stroke-opacity:1;stroke-miterlimit:4;" d="M 74.083834 -168.640791 L 433.958559 -168.640791 C 445.593812 -168.640791 455.047454 -159.187148 455.047454 -147.460995 L 455.047454 212.322829 C 455.047454 224.048982 445.593812 233.502625 433.958559 233.502625 L 74.083834 233.502625 C 62.357682 233.502625 52.904039 224.048982 52.904039 212.322829 L 52.904039 -147.460995 C 52.904039 -159.187148 62.357682 -168.640791 74.083834 -168.640791 Z M 74.083834 -168.640791 " transform="matrix(0.0429729,0,0,0.0429729,0,9.239163)"/>
<path style=" stroke:none;fill-rule:nonzero;fill:url(#linear2);" d="M 10.914062 2.902344 C 6.632812 2.902344 3.183594 6.347656 3.183594 10.632812 C 3.183594 14.914062 6.632812 18.363281 10.914062 18.363281 C 15.199219 18.363281 18.648438 14.914062 18.648438 10.632812 C 18.648438 6.347656 15.199219 2.902344 10.914062 2.902344 Z M 10.914062 3.808594 C 14.695312 3.808594 17.738281 6.851562 17.738281 10.632812 C 17.738281 11.8125 17.441406 12.921875 16.917969 13.886719 Z M 10.914062 3.808594 L 4.914062 13.886719 C 4.390625 12.921875 4.09375 11.8125 4.09375 10.632812 C 4.09375 6.851562 7.136719 3.808594 10.914062 3.808594 Z M 10.914062 10.632812 L 16.90625 13.910156 C 15.75 16.023438 13.503906 17.453125 10.914062 17.453125 C 8.324219 17.453125 6.082031 16.023438 4.925781 13.910156 Z M 10.914062 10.632812 "/>
<path style=" stroke:none;fill-rule:nonzero;fill:rgb(100%,100%,100%);fill-opacity:1;" d="M 10.914062 2.902344 C 6.632812 2.902344 3.183594 6.347656 3.183594 10.632812 C 3.183594 10.671875 3.183594 10.707031 3.183594 10.746094 C 3.246094 6.515625 6.667969 3.128906 10.914062 3.128906 C 15.160156 3.128906 18.585938 6.515625 18.644531 10.746094 C 18.644531 10.707031 18.648438 10.671875 18.648438 10.632812 C 18.648438 6.347656 15.199219 2.902344 10.914062 2.902344 Z M 10.914062 4.039062 L 16.742188 13.820312 L 16.90625 13.910156 C 16.886719 13.941406 16.871094 13.972656 16.851562 14.003906 L 16.917969 14.117188 C 17.441406 13.148438 17.738281 12.039062 17.738281 10.859375 C 17.738281 10.824219 17.738281 10.785156 17.734375 10.746094 C 17.71875 11.886719 17.421875 12.953125 16.917969 13.886719 L 11.050781 4.039062 C 11.007812 4.039062 10.960938 4.039062 10.914062 4.039062 Z M 10.914062 4.039062 C 10.871094 4.039062 10.824219 4.039062 10.777344 4.039062 L 4.914062 13.886719 C 4.40625 12.953125 4.113281 11.886719 4.09375 10.746094 C 4.09375 10.785156 4.09375 10.824219 4.09375 10.859375 C 4.09375 12.039062 4.390625 13.148438 4.914062 14.117188 L 4.980469 14.003906 C 4.960938 13.972656 4.941406 13.941406 4.925781 13.910156 L 5.089844 13.820312 Z M 5.023438 14.082031 L 4.925781 14.136719 C 6.082031 16.253906 8.324219 17.679688 10.914062 17.679688 C 13.503906 17.679688 15.75 16.253906 16.90625 14.136719 L 16.804688 14.082031 C 15.625 16.101562 13.433594 17.453125 10.914062 17.453125 C 8.398438 17.453125 6.207031 16.101562 5.023438 14.082031 Z M 5.023438 14.082031 "/>
<path style=" stroke:none;fill-rule:nonzero;fill:rgb(0%,0%,0%);fill-opacity:0.235294;" d="M 10.914062 3.832031 L 11.109375 4.152344 C 14.742188 4.253906 17.648438 7.171875 17.734375 10.808594 C 17.734375 10.757812 17.738281 10.703125 17.738281 10.652344 C 17.738281 6.871094 14.695312 3.832031 10.914062 3.832031 Z M 10.914062 3.832031 C 7.136719 3.832031 4.09375 6.871094 4.09375 10.652344 C 4.09375 10.703125 4.09375 10.757812 4.09375 10.808594 C 4.179688 7.171875 7.085938 4.253906 10.722656 4.152344 Z M 10.914062 10.652344 L 5.171875 13.792969 L 5.007812 14.074219 C 5.027344 14.105469 5.046875 14.140625 5.066406 14.171875 L 10.914062 10.972656 L 16.765625 14.171875 C 16.785156 14.140625 16.804688 14.105469 16.824219 14.074219 L 16.65625 13.792969 Z M 3.183594 10.8125 C 3.183594 10.867188 3.183594 10.917969 3.183594 10.972656 C 3.183594 15.257812 6.632812 18.703125 10.914062 18.703125 C 15.199219 18.703125 18.648438 15.257812 18.648438 10.972656 C 18.648438 10.917969 18.644531 10.867188 18.644531 10.8125 C 18.558594 15.019531 15.144531 18.382812 10.914062 18.382812 C 6.683594 18.382812 3.269531 15.019531 3.183594 10.8125 Z M 3.183594 10.8125 "/>
<path style="fill:none;stroke-width:11.338583;stroke-linecap:round;stroke-linejoin:round;stroke:rgb(12.941177%,12.941177%,12.941177%);stroke-opacity:1;stroke-miterlimit:4;" d="M 959.908384 255.265544 C 583.36594 255.265544 280.001909 558.286014 280.001909 935.172019 C 280.001909 1311.714463 583.36594 1615.078494 959.908384 1615.078494 C 1336.794388 1615.078494 1640.15842 1311.714463 1640.15842 935.172019 C 1640.15842 558.286014 1336.794388 255.265544 959.908384 255.265544 Z M 959.908384 334.971609 C 1292.475068 334.971609 1560.108794 602.605335 1560.108794 935.172019 C 1560.108794 1038.927327 1533.998187 1136.498545 1487.961063 1221.358019 Z M 959.908384 334.971609 L 432.199265 1221.358019 C 386.162142 1136.498545 360.051534 1038.927327 360.051534 935.172019 C 360.051534 602.605335 627.68526 334.971609 959.908384 334.971609 Z M 959.908384 935.172019 L 1486.930381 1223.419382 C 1385.236436 1409.28568 1187.689078 1535.028869 959.908384 1535.028869 C 732.12769 1535.028869 534.923892 1409.28568 433.229947 1223.419382 Z M 959.908384 935.172019 " transform="matrix(0.0113699,0,0,0.0113699,0,0)"/>
<path style=" stroke:none;fill-rule:nonzero;fill:url(#linear3);" d="M 16.941406 13.929688 L 10.914062 10.632812 L 10.914062 3.808594 Z M 16.941406 13.929688 "/>
</g>
</svg>
